packages/symbols/svgs/solid/file-pdf-solid.svg

<svg width="16" height="16" viewBox="0 0 16 16" fill="none" xmlns="http://www.w3.org/2000/svg">
<path fill-rule="evenodd" clip-rule="evenodd" d="M9 6H15V15C15 15.6 14.6 16 14 16H2C1.4 16 1 15.6 1 15V1C1 0.4 1.4 0 2 0L9 0V6ZM11 0V4H15L11 0ZM11.5 11.7734C11.5 11.1575 10.9859 10.6562 10.3542 10.6562H10.2396C10.1536 10.6588 9.60156 10.6918 8.82865 10.8188C8.52292 10.5436 8.26589 10.2199 8.06198 9.85271C8.08946 9.77065 8.11622 9.68836 8.14224 9.60584C8.1868 9.43115 8.375 8.62754 8.375 8.01562C8.375 7.45576 7.90781 7 7.33333 7C6.75911 7 6.29167 7.45576 6.29167 8.01562C6.29167 8.02578 6.29688 8.88906 6.72214 9.90469C6.50365 10.4912 6.23828 11.0805 5.93229 11.6602C5.26432 11.9664 4.7125 12.3338 4.29115 12.7533C4.0974 12.9485 4 13.1999 4 13.5025C4 14.0611 4.46667 14.5156 5.0401 14.5156C5.375 14.5156 5.66927 14.3582 5.88594 14.092C6.11354 13.7807 6.45729 13.2769 6.83307 12.6089C7.32396 12.4165 7.88594 12.2537 8.50781 12.124C8.92891 12.4142 9.40599 12.6478 9.92838 12.8194C10.0693 12.8664 10.2207 12.8906 10.3768 12.8906C11.0068 12.8906 11.5 12.3998 11.5 11.7734ZM7.33334 7.8125C7.44808 7.8125 7.54168 7.90375 7.54168 8.01562C7.54168 8.47773 7.41407 9.07187 7.36306 9.2915C7.13274 8.60748 7.12501 8.06798 7.12501 8.01562C7.12501 7.90391 7.2186 7.8125 7.33334 7.8125ZM5.20782 13.6212C5.106 13.7633 4.83334 13.7045 4.83334 13.4594C4.83334 13.4061 4.85287 13.3553 4.88751 13.32C5.16798 13.0407 5.5073 12.8035 5.87761 12.6012C5.58334 13.0938 5.33517 13.4467 5.20782 13.6212ZM6.82553 11.7379C7.29376 11.5729 7.76642 11.4474 8.20366 11.3522C7.88022 11.046 7.62631 10.7144 7.42761 10.3833C7.24886 10.8438 7.04794 11.2958 6.82553 11.7379ZM10.6667 11.7963C10.6667 11.9512 10.5365 12.0781 10.3776 12.0781C10.3151 12.0781 10.25 12.068 10.1951 12.0494C9.81173 11.9243 9.47709 11.7671 9.1836 11.5894C9.77493 11.499 10.1901 11.4726 10.2442 11.4691L10.25 11.4688H10.3542C10.5261 11.4688 10.6667 11.6059 10.6667 11.7963Z" fill="black"/>
</svg>

<svg width="16" height="16" viewBox="0 0 16 16" xmlns="http://www.w3.org/2000/svg"><path fill-rule="evenodd" clip-rule="evenodd" d="M9 6h6v9c0 .6-.4 1-1 1H2c-.6 0-1-.4-1-1V1c0-.6.4-1 1-1h7v6Zm2-6v4h4l-4-4Zm.5 11.773c0-.615-.514-1.117-1.146-1.117h-.114c-.086.003-.638.036-1.411.163a3.728 3.728 0 0 1-.767-.966l.08-.247c.045-.175.233-.978.233-1.59A1.03 1.03 0 0 0 7.333 7a1.03 1.03 0 0 0-1.041 1.016c0 .01.005.873.43 1.889a14.97 14.97 0 0 1-.79 1.755c-.668.306-1.22.674-1.64 1.093a1.022 1.022 0 0 0-.292.75c0 .558.467 1.013 1.04 1.013.335 0 .63-.158.846-.424.228-.311.571-.815.947-1.483a10.48 10.48 0 0 1 1.675-.485c.42.29.898.524 1.42.695.141.047.293.072.449.072.63 0 1.123-.491 1.123-1.118Zm-4.167-3.96c.115 0 .209.09.209.203 0 .462-.128 1.056-.179 1.275a4.36 4.36 0 0 1-.238-1.275c0-.112.094-.204.208-.204ZM5.208 13.62c-.102.142-.375.083-.375-.162a.2.2 0 0 1 .055-.139c.28-.28.62-.517.99-.719a13.61 13.61 0 0 1-.67 1.02Zm1.618-1.883a11.6 11.6 0 0 1 1.378-.386 4.564 4.564 0 0 1-.776-.969c-.18.46-.38.913-.602 1.355Zm3.84.058c0 .155-.13.282-.288.282a.585.585 0 0 1-.183-.029 4.845 4.845 0 0 1-1.011-.46c.59-.09 1.006-.116 1.06-.12h.11c.172 0 .313.137.313.327Z"/></svg>
